icon-themes/sifr_svg/vcl/res/infobox.svg

<svg viewBox="0 0 32 32" xmlns="http://www.w3.org/2000/svg"><path d="m16 3a13 13 0 0 0 -13 13 13 13 0 0 0 13 13 13 13 0 0 0 13-13 13 13 0 0 0 -13-13zm1.652344 3.0175781c1.18641-.0136061 2.107021.8777492 2.279297 1.9921875.422417 2.0227684-1.598807 3.9540054-3.56836 3.1191404l-.021484-.007812-.019531-.009766c-2.443946-1.1725797-1.309886-5.1868693 1.330078-5.0937499zm-.591797 5.6738279c.833977.070825 1.420642.717665 1.652344 1.363282.053884.150142.091571.305282.117187.46289.020897.122701.025331.247432.029297.373047.000717.032792.006322.064729.005859.097656-.00065.15548-.017531.311916-.044922.46875-.028009.160379-.071974.31963-.128906.478516-.475994 2.193057-1.088522 4.245603-1.568359 6.308594.044961-.027211.080657-.047737.111328-.070313.073274-.079713.14936-.158061.255859-.224609.007295-.004786.015907-.009005.023438-.013672.108824-.06428.233857-.119716.402344-.150391.46994-.085558.974421.229076 1.148437.451172.087009.111048.152376.210569.201172.298828.146388.264778.149131.430215.183594.517578l.285156.722657-.628906.455078c-1.072768.776928-2.2207 1.679026-3.615235 2.30664-.910601.617596-2.120082.542551-2.816406-.111328-.083788-.07868-.160634-.164092-.230469-.253906-.000553-.000715-.0014-.001237-.001953-.001953-.04835-.062343-.087429-.130278-.128906-.197266-.018765-.030482-.041283-.058488-.058594-.089844-.109104-.196288-.187507-.409951-.238281-.632812-.000733-.003283-.001233-.006478-.001953-.009766-.050597-.226271-.069233-.461553-.056641-.701172.012627-.24027.059297-.482928.138672-.722656.206609-1.01196.435391-2.008639.669922-2.998047.234272-.989071.473686-1.969757.703125-2.951171-.040543.026472-.076303.049044-.113281.072265-.049096.055293-.103851.107301-.166016.158203-.088776.075797-.189983.147139-.332031.203125-.353497.139326-.898915.043822-1.167969-.158203-.538109-.40405-.536359-.732508-.630859-.998047l-.246094-.691406.585938-.443359c1.239027-.935374 2.538401-2.042533 4.15039-2.808594.448117-.337069.968708-.555866 1.511719-.509766zm-3.574219 5.103516c-.008855.011186-.020346.02201-.029297.033203l.027344-.025391c.0007-.0026.00135-.005212.001953-.007812zm3.648438 4.478516-.025391.019531c-.0006.0025-.001363.005212-.001953.007812.007748-.009218.019489-.018038.027344-.027343z" fill="#555753"/></svg>

<svg xmlns="http://www.w3.org/2000/svg" viewBox="0 0 32 32">
  <path
     style="fill:#555753"
     d="M 16 3 A 13 13 0 0 0 3 16 A 13 13 0 0 0 16 29 A 13 13 0 0 0 29 16 A 13 13 0 0 0 16 3 z M 17.652344 6.0175781 C 18.838754 6.003972 19.759365 6.8953273 19.931641 8.0097656 C 20.354058 10.032534 18.332834 11.963771 16.363281 11.128906 L 16.341797 11.121094 L 16.322266 11.111328 C 13.87832 9.9387483 15.01238 5.9244587 17.652344 6.0175781 z M 17.060547 11.691406 C 17.894524 11.762231 18.481189 12.409071 18.712891 13.054688 C 18.766775 13.20483 18.804462 13.35997 18.830078 13.517578 C 18.850975 13.640279 18.855409 13.76501 18.859375 13.890625 C 18.860092 13.923417 18.865697 13.955354 18.865234 13.988281 C 18.864584 14.143761 18.847703 14.300197 18.820312 14.457031 C 18.792303 14.61741 18.748338 14.776661 18.691406 14.935547 C 18.215412 17.128604 17.602884 19.18115 17.123047 21.244141 C 17.168008 21.21693 17.203704 21.196404 17.234375 21.173828 C 17.307649 21.094115 17.383735 21.015767 17.490234 20.949219 C 17.497529 20.944433 17.506141 20.940214 17.513672 20.935547 C 17.622496 20.871267 17.747529 20.815831 17.916016 20.785156 C 18.385956 20.699598 18.890437 21.014232 19.064453 21.236328 C 19.151462 21.347376 19.216829 21.446897 19.265625 21.535156 C 19.412013 21.799934 19.414756 21.965371 19.449219 22.052734 L 19.734375 22.775391 L 19.105469 23.230469 C 18.032701 24.007397 16.884769 24.909495 15.490234 25.537109 C 14.579633 26.154705 13.370152 26.07966 12.673828 25.425781 C 12.59004 25.347101 12.513194 25.261689 12.443359 25.171875 C 12.442806 25.17116 12.441959 25.170638 12.441406 25.169922 C 12.393056 25.107579 12.353977 25.039644 12.3125 24.972656 C 12.293735 24.942174 12.271217 24.914168 12.253906 24.882812 C 12.144802 24.686524 12.066399 24.472861 12.015625 24.25 C 12.014892 24.246717 12.014392 24.243522 12.013672 24.240234 C 11.963075 24.013963 11.944439 23.778681 11.957031 23.539062 C 11.969658 23.298792 12.016328 23.056134 12.095703 22.816406 C 12.302312 21.804446 12.531094 20.807767 12.765625 19.818359 C 12.999897 18.829288 13.239311 17.848602 13.46875 16.867188 C 13.428207 16.89366 13.392447 16.916232 13.355469 16.939453 C 13.306373 16.994746 13.251618 17.046754 13.189453 17.097656 C 13.100677 17.173453 12.99947 17.244795 12.857422 17.300781 C 12.503925 17.440107 11.958507 17.344603 11.689453 17.142578 C 11.151344 16.738528 11.153094 16.41007 11.058594 16.144531 L 10.8125 15.453125 L 11.398438 15.009766 C 12.637465 14.074392 13.936839 12.967233 15.548828 12.201172 C 15.996945 11.864103 16.517536 11.645306 17.060547 11.691406 z M 13.486328 16.794922 C 13.477473 16.806108 13.465982 16.816932 13.457031 16.828125 L 13.484375 16.802734 C 13.485075 16.800134 13.485725 16.797522 13.486328 16.794922 z M 17.134766 21.273438 L 17.109375 21.292969 C 17.108775 21.295469 17.108012 21.298181 17.107422 21.300781 C 17.11517 21.291563 17.126911 21.282743 17.134766 21.273438 z "
     />
</svg>
